modules/hawcons-filled/icons/icon-145-tag-cord.svg

<?xml version="1.0" encoding="UTF-8" standalone="no"?>
<svg width="32px" height="32px" viewBox="0 0 32 32" version="1.1" xmlns="http://www.w3.org/2000/svg" xmlns:xlink="http://www.w3.org/1999/xlink" xmlns:sketch="http://www.bohemiancoding.com/sketch/ns">
    <!-- Generator: Sketch 3.0.3 (7891) - http://www.bohemiancoding.com/sketch -->
    <title>icon 145 tag cord</title>
    <desc>Created with Sketch.</desc>
    <defs></defs>
    <g id="Page-1" stroke="none" stroke-width="1" fill="none" fill-rule="evenodd" sketch:type="MSPage">
        <g id="icon-145-tag-cord" sketch:type="MSArtboardGroup" fill="#929292">
            <path d="M10.7649167,6.02409559 L16.0037425,6.02409559 L29.3846453,19.4049983 C30.1677933,20.1881464 30.1717595,21.4560542 29.392184,22.2356297 L22.2152766,29.4125371 C21.4368615,30.1909522 20.1683843,30.1887374 19.3846453,29.4049983 L6.00374252,16.0240956 L6.00374252,8.02371058 C6.00374252,7.07362502 6.6570569,6.28754955 7.53593968,6.07859634 C7.73291495,6.39703093 7.88811246,6.78815311 7.9807891,7.25523675 C8.79027937,11.3350097 9.59845958,12.8019128 11.4263495,13.0295277 C11.4321936,13.0302554 11.4381757,13.0279965 11.4442807,13.0229386 C11.4640059,13.0237075 11.4838289,13.0240956 11.5037425,13.0240956 C12.3321697,13.0240956 13.0037425,12.3525228 13.0037425,11.5240956 C13.0037425,10.8387248 12.5440837,10.2607132 11.9162291,10.0815238 C11.9163876,10.0741545 11.9161745,10.0699168 11.9155714,10.0690403 C11.6445643,9.67519661 11.3088217,8.61374736 10.9234244,6.67137224 C10.8790088,6.44752126 10.8259603,6.23176583 10.7649167,6.02409559 L10.7649167,6.02409559 L10.7649167,6.02409559 Z M9.94254594,6.86599374 C9.0759337,2.49833017 4.38733577,1.88351324 2.58042986,4.75800079 C1.13153604,7.0629505 2.56511938,11.0240955 5.00374249,11.0240958 L5.00374261,10.0240958 C3.45185332,10.0240956 2.35552373,6.99481898 3.42705511,5.29019031 C4.76966148,3.15432632 8.27787688,3.61435941 8.96166752,7.06061524 C9.77057715,11.1374618 10.3806776,12.024096 12.0037427,12.0240954 L12.0037424,11.0240954 C11.0105849,11.0240958 10.6691155,10.5278522 9.94254594,6.86599374 L9.94254594,6.86599374 Z" id="tag-cord" sketch:type="MSShapeGroup"></path>
        </g>
    </g>
</svg>

<svg width="32" height="32" viewBox="0 0 32 32" xmlns="http://www.w3.org/2000/svg"><path d="M10.765 6.024h5.239l13.38 13.381c.784.783.788 2.051.008 2.83l-7.177 7.178a2.003 2.003 0 0 1-2.83-.008L6.004 16.025V8.023c0-.95.653-1.736 1.532-1.945.197.318.352.71.445 1.176.81 4.08 1.617 5.547 3.445 5.775.006 0 .012-.002.018-.007l.06.001a1.5 1.5 0 0 0 .412-2.942.04.04 0 0 0 0-.013c-.271-.394-.607-1.455-.993-3.398a7.404 7.404 0 0 0-.158-.647zm-.822.842C9.076 2.498 4.387 1.884 2.58 4.758c-1.448 2.305-.015 6.266 2.424 6.266v-1c-1.552 0-2.648-3.03-1.577-4.734 1.343-2.136 4.85-1.676 5.535 1.77.809 4.077 1.419 4.964 3.042 4.964v-1c-.993 0-1.335-.496-2.061-4.158z" fill="#929292" fill-rule="evenodd"/></svg>
